X:1
T:The Angels Are Looking on Me!
T:The Angels Are Looking on Me!
T:Arranged
T:John Parker, 1885
T:Public Domain Courtesy of the Cyber Hymnal™
C:Arranged
Z:Public Domain
Z:Courtesy of the Cyber Hymnal™
%%score 1 2
L:1/8
Q:1/4=106
M:4/4
K:F
V:1 treble 
V:2 bass 
V:1
 [CF]2 | [FA]2 [FA]2 [CF]2 [FA]2 | [FA]2 [FA]2 [CF]2 [FA]2 | [Fc]2 [Fc]>[Fc] [Fc]<[Fc] [FA]2 | %4
w: 1.~Like|Ja- cob in his|Beth- el rest, The|an- gels are look- ing on|
w: 2.~Each|night I lay me|down to sleep, The|an- gels are look- ing on|
w: 3.~And|when I wake, new|toils to meet, The|an- gels are look- ing on|
w: 4.~A|pil- grim to the|heav’n- ly land, The|an- gels are look- ing on|
w: 5.~And|till I reach my|home at last, The|an- gels are look- ing on|
 [EG]6 [EG]2 | [EG]2 [EG]2 [CE]2 [EG]2 | [EG]2 [EG]2 [CE]2 [EG]2 | %7
w: me; They|watch my pil- low—|I am blest, The|
w: me; I|know I’m safe, for|an- gels keep, The|
w: me; God’s|pre- sence makes my|joy com- plete, The|
w: me; My|steps are kept by|God’s com- mand, The|
w: me; With|ev- ery tear and|tri- al past, The|
 [EB]2 [EB]>[EB] [FA]<[FA] [EG]2 | [CF]6 z2 ||"^Refrain" [FA]4 [CF]2 z2 | [FA]4 [CF]2 z [FA] | %11
w: an- gels are look- ing on|me.|||
w: an- gels are look- ing on|me.|||
w: an- gels are look- ing on|me.|All night,|all night, The|
w: an- gels are look- ing on|me.|||
w: an- gels are look- ing on|me.|||
 [Fc]2 [Fc]>[Fc] [Fd]<[Fc] [FA]2 | [EG]6 z2 | [EG]4 [CE]2 z2 | [EG]4 [CE]2 z [EG] | %15
w: ||||
w: ||||
w: an- gels are look- ing on|me;|All night,|all night, The|
w: ||||
w: ||||
 [EB]2 [EB]>[EB] [FA]<[FA] [EG]2 | [CF]6 |] %17
w: ||
w: ||
w: an- gels are look- ing on|me.|
w: ||
w: ||
V:2
 [F,A,]2 | [F,C]2 [F,C]2 [F,A,]2 [F,C]2 | [F,C]2 [F,C]2 [F,A,]2 [F,C]2 | %3
 [F,A,]2 [F,A,]>[F,A,] [F,B,]<[F,A,] [F,C]2 | [C,C]6 [C,C]2 | [C,C]2 [C,C]2 [C,G,]2 [C,C]2 | %6
 [C,C]2 [C,C]2 [C,G,]2 [C,C]2 | [C,G,]2 [C,G,]>[C,G,] [C,C]<[C,C] [C,B,]2 | [F,A,]6 z2 || %9
 [F,C]4 [F,A,]2 z2 | [F,C]4 [F,A,]2 z [F,C] | [F,A,]2 [F,A,]>[F,A,] [F,B,]<[F,A,] [F,C]2 | %12
 [C,C]6 z2 | [C,C]4 [C,G,]2 z2 | [C,C]4 [C,G,]2 z [C,C] | %15
 [C,G,]2 [C,G,]>[C,G,] [C,C]<[C,C] [C,B,]2 | [F,A,]6 |] %17

